X: 772
T: O'er the Moor among the Heather
R: reel
B: Robert Bremner "A Collection of Scots Reels or Country Dances" 1757 p.77 #2
S: http://imslp.org/wiki/A_Collection_of_Scots_Reels_or_Country_Dances_(Bremner,_Robert)
Z: 2013 John Chambers <jc:trillian.mit.edu>
M: C
L: 1/8
K: Gmix
% - - - - - - - - - - - - - - - - - - - - - - - - -
V: 1
|:\
DG-GA GAGD | EAAB cBAB |\
GABc degd | e/f/g dB ABAG :|
|:\
Gg-ga gagd | ea-ab abag |\
bage d/d/d b>a | gedB ABAG :|
% - - - - - - - - - - - - - - - - - - - - - - - - -
V: 2 clef=bass middle=d
|:\
g2g2 g2g2 | a2a2 a2a2 |\
g2g2 g2g2 | g2g2 a2a2 :|
|:\
g2g2 g2g2 | a2a2 a2a2 |\
g2g2 g2g2 | g2g2 a2a2 :|
% - - - - - - - - - - - - - - - - - - - - - - - - -

%%sep 1 1 500
%%sep 1 1 500
